T: Chanter's Song
M: 2/4
L: 1/8
K: Ddor
|: DD AG/E/ | DD cB/c/ | dA AG/A/ | cB/c/ A/G/F/E/ |DD AG/E/ | DD cB/c/ | dA AG/A/ | D2 D2 :||: A>B c>B | A/G/A/B/ cB/c/ | dA AG/A/ | cB/c/ A/G/F/E/ |DD AG/E/ | DD cB/c/ | dA A/G/F/E/ | D2 D2 :|
